public/svgs/twin/anatomy-m1-3.svg

<svg width="100%" height="100%" viewBox="0 0 32 32" fill="none" xmlns="http://www.w3.org/2000/svg">
<path d="M6.66669 29.3337C5.55558 29.3337 4.61113 28.9448 3.83335 28.167C3.05558 27.3892 2.66669 26.4448 2.66669 25.3337C2.66669 24.9559 2.79446 24.6392 3.05002 24.3837C3.30558 24.1281 3.62224 24.0003 4.00002 24.0003C4.3778 24.0003 4.69446 24.1281 4.95002 24.3837C5.20558 24.6392 5.33335 24.9559 5.33335 25.3337C5.33335 25.7114 5.46113 26.0281 5.71669 26.2837C5.97224 26.5392 6.28891 26.667 6.66669 26.667C7.00002 26.667 7.37224 26.567 7.78335 26.367C8.19447 26.167 8.62224 25.8781 9.06669 25.5003C9.51113 25.1225 9.95002 24.6948 10.3834 24.217C10.8167 23.7392 11.2445 23.2225 11.6667 22.667C12.5111 21.5337 13.2222 20.367 13.8 19.167C14.3778 17.967 14.6667 16.9114 14.6667 16.0003V4.00033C14.6667 3.62255 14.7945 3.30588 15.05 3.05033C15.3056 2.79477 15.6222 2.66699 16 2.66699C16.3778 2.66699 16.6945 2.79477 16.95 3.05033C17.2056 3.30588 17.3334 3.62255 17.3334 4.00033V16.0003C17.3334 16.9114 17.6222 17.967 18.2 19.167C18.7778 20.367 19.4889 21.5337 20.3334 22.667C20.7556 23.2225 21.1834 23.7392 21.6167 24.217C22.05 24.6948 22.4889 25.1225 22.9334 25.5003C23.3778 25.8781 23.8056 26.167 24.2167 26.367C24.6278 26.567 25 26.667 25.3334 26.667C25.7111 26.667 26.0278 26.5392 26.2834 26.2837C26.5389 26.0281 26.6667 25.7114 26.6667 25.3337C26.6667 24.9559 26.7945 24.6392 27.05 24.3837C27.3056 24.1281 27.6222 24.0003 28 24.0003C28.3778 24.0003 28.6945 24.1281 28.95 24.3837C29.2056 24.6392 29.3334 24.9559 29.3334 25.3337C29.3334 26.4448 28.9445 27.3892 28.1667 28.167C27.3889 28.9448 26.4445 29.3337 25.3334 29.3337C24.8 29.3337 24.1945 29.1781 23.5167 28.867C22.8389 28.5559 22.1445 28.1225 21.4334 27.567C20.7222 27.0114 20.0167 26.3614 19.3167 25.617C18.6167 24.8725 17.9556 24.067 17.3334 23.2003C17 22.7337 16.7389 22.417 16.55 22.2503C16.3611 22.0837 16.1778 22.0003 16 22.0003C15.8222 22.0003 15.6389 22.0837 15.45 22.2503C15.2611 22.417 15 22.7337 14.6667 23.2003C14.0445 24.067 13.3834 24.8725 12.6834 25.617C11.9834 26.3614 11.2778 27.0114 10.5667 27.567C9.85558 28.1225 9.16113 28.5559 8.48335 28.867C7.80558 29.1781 7.20002 29.3337 6.66669 29.3337ZM7.33335 25.0337L4.33335 22.6003C4.02224 22.3559 3.7778 22.0614 3.60002 21.717C3.42224 21.3725 3.33335 21.0003 3.33335 20.6003C3.33335 20.2003 3.41113 19.8225 3.56669 19.467C3.72224 19.1114 3.95558 18.8114 4.26669 18.567C4.48891 18.3892 4.73335 18.3059 5.00002 18.317C5.26669 18.3281 5.48891 18.4448 5.66669 18.667C5.84447 18.8892 5.9278 19.1392 5.91669 19.417C5.90558 19.6948 5.78891 19.9225 5.56669 20.1003C5.52224 20.1448 5.47224 20.2114 5.41669 20.3003C5.36113 20.3892 5.33335 20.4892 5.33335 20.6003C5.33335 20.6892 5.35002 20.7725 5.38335 20.8503C5.41669 20.9281 5.4778 21.0003 5.56669 21.067L8.93335 23.7337C8.62224 24.0225 8.33335 24.2781 8.06669 24.5003C7.80002 24.7225 7.55558 24.9003 7.33335 25.0337ZM10.8667 21.6337L6.33335 18.0003C6.02224 17.7559 5.7778 17.4559 5.60002 17.1003C5.42224 16.7448 5.33335 16.367 5.33335 15.967C5.33335 15.567 5.41113 15.1837 5.56669 14.817C5.72224 14.4503 5.95558 14.1448 6.26669 13.9003C6.48891 13.7225 6.73891 13.6448 7.01669 13.667C7.29447 13.6892 7.52224 13.8114 7.70002 14.0337C7.8778 14.2559 7.95558 14.5003 7.93335 14.767C7.91113 15.0337 7.78891 15.2559 7.56669 15.4337C7.50002 15.4781 7.44447 15.5559 7.40002 15.667C7.35558 15.7781 7.33335 15.8892 7.33335 16.0003C7.33335 16.0892 7.35002 16.1725 7.38335 16.2503C7.41669 16.3281 7.4778 16.4003 7.56669 16.467L12 20.0003C11.8222 20.2892 11.6389 20.567 11.45 20.8337C11.2611 21.1003 11.0667 21.367 10.8667 21.6337ZM13.1667 17.3337L8.33335 13.4337C8.02224 13.1892 7.7778 12.8781 7.60002 12.5003C7.42224 12.1225 7.33335 11.7337 7.33335 11.3337C7.33335 10.9114 7.42224 10.5225 7.60002 10.167C7.7778 9.81144 8.02224 9.50033 8.33335 9.23366C8.53335 9.05588 8.77224 8.9781 9.05002 9.00033C9.3278 9.02255 9.55558 9.14477 9.73335 9.36699C9.91113 9.58921 9.98891 9.83366 9.96669 10.1003C9.94447 10.367 9.82224 10.5892 9.60002 10.767C9.55558 10.8114 9.50002 10.8892 9.43335 11.0003C9.36669 11.1114 9.33335 11.2337 9.33335 11.367C9.33335 11.4114 9.42224 11.5781 9.60002 11.867L13.3334 14.9003V16.0003C13.3334 16.2225 13.3167 16.4448 13.2834 16.667C13.25 16.8892 13.2111 17.1114 13.1667 17.3337ZM13.3334 11.1337L10.2667 8.56699C9.95558 8.32255 9.72224 8.0281 9.56669 7.68366C9.41113 7.33921 9.33335 6.9781 9.33335 6.60033C9.33335 5.88921 9.58891 5.2781 10.1 4.76699C10.6111 4.25588 11.2222 4.00033 11.9334 4.00033C12.2889 4.00033 12.6111 4.05588 12.9 4.16699C13.1889 4.2781 13.3334 4.55588 13.3334 5.00033C13.3334 5.44477 13.1889 5.72255 12.9 5.83366C12.6111 5.94477 12.2889 6.00033 11.9334 6.00033C11.7556 6.00033 11.6111 6.06699 11.5 6.20033C11.3889 6.33366 11.3334 6.4781 11.3334 6.63366C11.3334 6.72255 11.35 6.80033 11.3834 6.86699C11.4167 6.93366 11.4667 6.98921 11.5334 7.03366L13.3334 8.53366V11.1337ZM18.8334 17.3337C18.7889 17.1114 18.75 16.8892 18.7167 16.667C18.6834 16.4448 18.6667 16.2225 18.6667 16.0003V14.9003L22.4 11.867C22.4889 11.8003 22.5778 11.6337 22.6667 11.367C22.6667 11.2337 22.6334 11.1114 22.5667 11.0003C22.5 10.8892 22.4445 10.8114 22.4 10.767C22.1778 10.5892 22.0556 10.367 22.0334 10.1003C22.0111 9.83366 22.0889 9.58921 22.2667 9.36699C22.4445 9.14477 22.6722 9.02255 22.95 9.00033C23.2278 8.9781 23.4778 9.05588 23.7 9.23366C24.0111 9.50033 24.25 9.81699 24.4167 10.1837C24.5834 10.5503 24.6667 10.9337 24.6667 11.3337C24.6667 11.7337 24.5778 12.117 24.4 12.4837C24.2222 12.8503 23.9778 13.1559 23.6667 13.4003L18.8334 17.3337ZM18.6667 11.1337V8.53366L20.4667 7.03366C20.5334 6.98921 20.5834 6.93366 20.6167 6.86699C20.65 6.80033 20.6667 6.72255 20.6667 6.63366C20.6667 6.45588 20.6111 6.30588 20.5 6.18366C20.3889 6.06144 20.2445 6.00033 20.0667 6.00033C19.7111 6.00033 19.3889 5.94477 19.1 5.83366C18.8111 5.72255 18.6667 5.44477 18.6667 5.00033C18.6667 4.55588 18.8111 4.2781 19.1 4.16699C19.3889 4.05588 19.7111 4.00033 20.0667 4.00033C20.7778 4.00033 21.3889 4.25588 21.9 4.76699C22.4111 5.2781 22.6667 5.88921 22.6667 6.60033C22.6667 6.9781 22.5889 7.33921 22.4334 7.68366C22.2778 8.0281 22.0445 8.32255 21.7334 8.56699L18.6667 11.1337ZM21.1334 21.6337C20.9334 21.367 20.7389 21.0948 20.55 20.817C20.3611 20.5392 20.1778 20.2559 20 19.967L24.4 16.4337C24.4667 16.3892 24.5445 16.2225 24.6334 15.9337C24.6334 15.8892 24.5667 15.7225 24.4334 15.4337C24.2111 15.2559 24.0889 15.0281 24.0667 14.7503C24.0445 14.4725 24.1222 14.2225 24.3 14.0003C24.4778 13.7781 24.7 13.6559 24.9667 13.6337C25.2334 13.6114 25.4778 13.6892 25.7 13.867C26.0111 14.1114 26.25 14.417 26.4167 14.7837C26.5834 15.1503 26.6667 15.5337 26.6667 15.9337C26.6667 16.3337 26.5778 16.717 26.4 17.0837C26.2222 17.4503 25.9778 17.7559 25.6667 18.0003L21.1334 21.6337ZM24.6667 25.0337C24.4445 24.9003 24.2 24.7225 23.9334 24.5003C23.6667 24.2781 23.3778 24.0225 23.0667 23.7337L26.4334 21.067C26.5 21.0225 26.5778 20.867 26.6667 20.6003C26.6667 20.4892 26.6445 20.3892 26.6 20.3003C26.5556 20.2114 26.5111 20.1448 26.4667 20.1003C26.2445 19.9225 26.1222 19.6948 26.1 19.417C26.0778 19.1392 26.1556 18.8892 26.3334 18.667C26.5111 18.4448 26.7334 18.3281 27 18.317C27.2667 18.3059 27.5111 18.3892 27.7334 18.567C28.0445 18.8114 28.2778 19.1114 28.4334 19.467C28.5889 19.8225 28.6667 20.2003 28.6667 20.6003C28.6667 21.0003 28.5834 21.3725 28.4167 21.717C28.25 22.0614 28.0111 22.3559 27.7 22.6003L24.6667 25.0337Z" fill="current"/>
</svg>

<svg xmlns="http://www.w3.org/2000/svg" fill="none" viewBox="0 0 32 32"><path fill="current" d="M6.667 29.334q-1.667 0-2.834-1.167Q2.667 27 2.667 25.334q0-.567.383-.95A1.3 1.3 0 0 1 4 24q.567 0 .95.384.383.383.383.95 0 .566.384.95.383.383.95.383.5 0 1.116-.3t1.284-.867a14 14 0 0 0 1.316-1.283q.651-.717 1.284-1.55a21.4 21.4 0 0 0 2.133-3.5q.867-1.8.867-3.167V4q0-.566.383-.95a1.3 1.3 0 0 1 .95-.383q.567 0 .95.383.383.384.383.95v12q0 1.367.867 3.167a21.4 21.4 0 0 0 2.133 3.5q.634.833 1.284 1.55t1.316 1.283 1.284.867 1.116.3q.567 0 .95-.383a1.3 1.3 0 0 0 .384-.95q0-.567.383-.95A1.3 1.3 0 0 1 28 24q.567 0 .95.384.383.383.383.95 0 1.665-1.166 2.833-1.167 1.167-2.834 1.167-.8 0-1.816-.467t-2.084-1.3a19 19 0 0 1-2.116-1.95 24 24 0 0 1-1.984-2.417q-.5-.7-.783-.95T16 22t-.55.25-.783.95a24 24 0 0 1-1.984 2.417q-1.05 1.116-2.116 1.95t-2.084 1.3-1.816.467m.666-4.3-3-2.434a2.7 2.7 0 0 1-.733-.883 2.4 2.4 0 0 1-.267-1.117q0-.6.234-1.133.233-.534.7-.9.333-.267.733-.25a.87.87 0 0 1 .667.35q.265.333.25.75a.89.89 0 0 1-.35.683 1.2 1.2 0 0 0-.15.2.55.55 0 0 0-.084.3q0 .134.05.25.05.117.184.217l3.366 2.667q-.466.433-.866.766-.4.334-.734.534m3.534-3.4L6.333 18a2.6 2.6 0 0 1-.733-.9 2.5 2.5 0 0 1-.267-1.133q0-.6.234-1.15.233-.55.7-.917a1.03 1.03 0 0 1 .75-.233.94.94 0 0 1 .683.367q.267.333.233.733a.93.93 0 0 1-.366.667.5.5 0 0 0-.167.233.9.9 0 0 0-.067.333q0 .134.05.25.05.117.184.217L12 20q-.267.434-.55.834t-.583.8m2.3-4.3-4.834-3.9A2.54 2.54 0 0 1 7.6 12.5a2.7 2.7 0 0 1-.267-1.166q0-.634.267-1.167a3 3 0 0 1 .733-.933A.92.92 0 0 1 9.05 9a.94.94 0 0 1 .683.367q.267.334.234.733a.93.93 0 0 1-.367.667q-.066.066-.167.233a.7.7 0 0 0-.1.367q0 .066.267.5l3.733 3.033V16q0 .334-.05.667t-.116.667m.166-6.2-3.066-2.567a2.34 2.34 0 0 1-.7-.883A2.6 2.6 0 0 1 9.333 6.6q0-1.066.767-1.833A2.5 2.5 0 0 1 11.933 4q.534 0 .967.167t.433.833q0 .668-.433.834a2.7 2.7 0 0 1-.967.166.54.54 0 0 0-.433.2.66.66 0 0 0-.167.434q0 .133.05.233a.43.43 0 0 0 .15.167l1.8 1.5zm5.5 6.2a14 14 0 0 1-.116-.667 4.5 4.5 0 0 1-.05-.667v-1.1l3.733-3.033q.133-.1.267-.5a.7.7 0 0 0-.1-.367 1.3 1.3 0 0 0-.167-.233.93.93 0 0 1-.367-.667 1 1 0 0 1 .234-.733A.94.94 0 0 1 22.95 9a1.03 1.03 0 0 1 .75.234q.466.4.717.95t.25 1.15-.267 1.15a2.6 2.6 0 0 1-.733.916zm-.166-6.2v-2.6l1.8-1.5a.43.43 0 0 0 .15-.167.5.5 0 0 0 .05-.233.65.65 0 0 0-.167-.45.56.56 0 0 0-.433-.184q-.534 0-.967-.166-.433-.167-.433-.834t.433-.833.967-.167q1.066 0 1.833.767t.767 1.833q0 .567-.234 1.084a2.34 2.34 0 0 1-.7.883zm2.466 10.5A22 22 0 0 1 20 19.967l4.4-3.533q.1-.068.233-.5 0-.067-.2-.5a.94.94 0 0 1-.366-.684A1.03 1.03 0 0 1 24.3 14a.93.93 0 0 1 .667-.366q.399-.034.733.233.466.366.717.917.25.55.25 1.15t-.267 1.15a2.6 2.6 0 0 1-.733.916zm3.534 3.4a6 6 0 0 1-.734-.534 22 22 0 0 1-.866-.766l3.366-2.667q.1-.066.234-.467a.66.66 0 0 0-.067-.3.8.8 0 0 0-.133-.2.94.94 0 0 1-.367-.683 1.03 1.03 0 0 1 .233-.75.87.87 0 0 1 .667-.35q.4-.017.733.25.467.366.7.9.234.534.234 1.133 0 .6-.25 1.117a2.5 2.5 0 0 1-.717.883z"/></svg>
